;FLAVOR:Marlin
;TIME:1295
;Filament used: 0.394164m
;Layer height: 0.2
;MINX:89.127
;MINY:91.88
;MINZ:0.2
;MAXX:128.843
;MAXY:126.922
;MAXZ:20
;TARGET_MACHINE.NAME:Creality Ender-3 Pro
;Generated with Cura_SteamEngine 5.6.0
M82 ;absolute extrusion mode
; Ender 3 Custom Start G-code
G92 E0 ; Reset Extruder
G28 ; Home all axes
G1 Z5.0 F3000 ; Move Z Axis up a bit during heating to not damage bed
M104 S175 ; Start heating up the nozzle most of the way
M190 S60 ; Start heating the bed, wait until target temperature reached
M109 S200 ; Finish heating the nozzle
G1 Z2.0 F3000 ; Move Z Axis up little to prevent scratching of Heat Bed
G1 X0.1 Y20 Z0.3 F5000.0 ; Move to start position
G1 X0.1 Y200.0 Z0.3 F1500.0 E15 ; Draw the first line
G1 X0.4 Y200.0 Z0.3 F5000.0 ; Move to side a little
G1 X0.4 Y20 Z0.3 F1500.0 E30 ; Draw the second line
G92 E0 ; Reset Extruder
G1 Z2.0 F3000 ; Move Z Axis up little to prevent scratching of Heat Bed
G1 X5 Y20 Z0.3 F5000.0 ; Move over to prevent blob squish
G92 E0
G92 E0
G1 F1500 E-6.5
;LAYER_COUNT:100
;LAYER:0
M107
G0 F6000 X93.488 Y96.244 Z0.2
;TYPE:SKIRT
G1 F1500 E0
G1 F1200 X94.243 Y95.631 E0.03235
G1 X94.99 Y95.123 E0.06239
G1 X95.656 Y94.74 E0.08795
G1 X96.134 Y94.489 E0.1059
G1 X97.135 Y94.027 E0.14257
G1 X97.493 Y93.884 E0.15539
G1 X98.116 Y93.658 E0.17743
G1 X100.765 Y92.788 E0.27017
G1 X101.642 Y92.481 E0.30108
G1 X102.591 Y92.196 E0.33403
G1 X103.475 Y92.012 E0.36406
G1 X104.53 Y91.891 E0.39938
G1 X105.825 Y91.88 E0.44246
G1 X109.083 Y92.059 E0.55098
G1 X110.033 Y92.156 E0.58274
G1 X111.168 Y92.323 E0.6209
G1 X112.122 Y92.509 E0.65323
G1 X112.97 Y92.749 E0.68254
G1 X113.762 Y93.009 E0.71027
G1 X117.433 Y94.135 E0.83798
G1 X118.349 Y94.464 E0.87035
G1 X119.17 Y94.841 E0.9004
G1 X120.078 Y95.361 E0.9352
G1 X120.874 Y95.919 E0.96753
G1 X121.62 Y96.546 E0.99994
G1 X122.283 Y97.21 E1.03115
G1 X122.93 Y97.985 E1.06473
G1 X123.469 Y98.761 E1.09616
G1 X124.054 Y99.809 E1.13608
G1 X124.39 Y100.506 E1.16181
G1 X127.55 Y107.358 E1.41278
G1 X127.919 Y108.189 E1.44302
G1 X128.248 Y109.03 E1.47305
G1 X128.539 Y110.032 E1.50776
G1 X128.727 Y110.989 E1.5402
G1 X128.828 Y111.957 E1.57257
G1 X128.843 Y112.932 E1.605
G1 X128.772 Y113.903 E1.63738
G1 X128.615 Y114.865 E1.6698
G1 X128.374 Y115.807 E1.70214
G1 X128.077 Y116.66 E1.73218
G1 X127.646 Y117.612 E1.76694
G1 X127.166 Y118.459 E1.79932
G1 X126.634 Y119.233 E1.83056
G1 X125.989 Y120.01 E1.86415
G1 X125.303 Y120.701 E1.89653
G1 X124.559 Y121.329 E1.92891
G1 X123.761 Y121.888 E1.96132
G1 X122.912 Y122.378 E1.99392
G1 X121.862 Y122.856 E2.03229
G1 X120.868 Y123.243 E2.06777
G1 X113.284 Y126.065 E2.33691
G1 X112.626 Y126.298 E2.36013
G1 X111.728 Y126.572 E2.39136
G1 X110.74 Y126.779 E2.42493
G1 X109.774 Y126.893 E2.45728
G1 X108.872 Y126.922 E2.4873
G1 X107.827 Y126.863 E2.52211
G1 X106.865 Y126.718 E2.55447
G1 X105.918 Y126.489 E2.58688
G1 X104.994 Y126.178 E2.6193
G1 X104.104 Y125.786 E2.65165
G1 X103.251 Y125.317 E2.68402
G1 X102.5 Y124.816 E2.71405
G1 X101.973 Y124.41 E2.73618
G1 X100.026 Y122.802 E2.82016
G1 X98.362 Y121.493 E2.89058
G1 X97.389 Y120.622 E2.93402
G1 X96.63 Y119.85 E2.97002
G1 X96.094 Y119.29 E2.99581
G1 X93.238 Y116.496 E3.12869
G1 X92.795 Y116.036 E3.14993
G1 X92.568 Y115.784 E3.16122
G1 X91.949 Y115.032 E3.19361
G1 X91.397 Y114.225 E3.22613
G1 X90.884 Y113.304 E3.26119
G1 X90.472 Y112.463 E3.29234
G1 X90.169 Y111.806 E3.31641
G1 X89.816 Y110.937 E3.3476
G1 X89.521 Y109.977 E3.38101
G1 X89.347 Y109.183 E3.40804
G1 X89.294 Y108.886 E3.41808
G1 X89.168 Y107.933 E3.45005
G1 X89.127 Y106.681 E3.49171
G1 X89.157 Y105.797 E3.52113
G1 X89.194 Y105.185 E3.54152
G1 X89.301 Y104.208 E3.57421
G1 X89.355 Y103.868 E3.58566
G1 X89.55 Y102.916 E3.61798
G1 X89.798 Y102.075 E3.64715
G1 X90.05 Y101.334 E3.67318
G1 X90.392 Y100.46 E3.70439
G1 X90.842 Y99.555 E3.73801
G1 X91.33 Y98.759 E3.76906
G1 X91.793 Y98.121 E3.79528
G1 X92.153 Y97.662 E3.81469
G1 X92.789 Y96.924 E3.84709
G1 X93.488 Y96.244 E3.87952
G0 F6000 X93.741 Y96.554
G1 F1200 X94.468 Y95.962 E3.91071
G1 X95.215 Y95.454 E3.94075
G1 X95.842 Y95.094 E3.9648
G1 X96.302 Y94.852 E3.98209
G1 X97.284 Y94.398 E4.01807
G1 X97.629 Y94.26 E4.03043
G1 X98.241 Y94.038 E4.05208
G1 X100.89 Y93.168 E4.14482
G1 X101.774 Y92.858 E4.17598
G1 X102.673 Y92.588 E4.2072
G1 X103.557 Y92.404 E4.23723
G1 X104.533 Y92.291 E4.26991
G1 X105.828 Y92.28 E4.31298
G1 X109.042 Y92.457 E4.42004
G1 X109.975 Y92.552 E4.45123
G1 X111.092 Y92.716 E4.48878
G1 X112.013 Y92.894 E4.51998
G1 X112.845 Y93.129 E4.54874
G1 X113.637 Y93.389 E4.57646
G1 X117.298 Y94.512 E4.70383
G1 X118.182 Y94.828 E4.73505
G1 X119.003 Y95.205 E4.7651
G1 X119.849 Y95.689 E4.79752
G1 X120.617 Y96.226 E4.82869
G1 X121.337 Y96.829 E4.85992
G1 X122 Y97.493 E4.89113
G1 X122.601 Y98.213 E4.92232
G1 X123.14 Y98.989 E4.95375
G1 X123.704 Y100.003 E4.99234
G1 X124.027 Y100.674 E5.01711
G1 X127.184 Y107.52 E5.26785
G1 X127.546 Y108.335 E5.29751
G1 X127.875 Y109.176 E5.32755
G1 X128.147 Y110.11 E5.35991
G1 X128.329 Y111.031 E5.39113
G1 X128.428 Y111.964 E5.42234
G1 X128.444 Y112.903 E5.45357
G1 X128.377 Y113.839 E5.48478
G1 X128.227 Y114.766 E5.51602
G1 X127.996 Y115.675 E5.54721
G1 X127.699 Y116.528 E5.57725
G1 X127.298 Y117.415 E5.60963
G1 X126.836 Y118.232 E5.64085
G1 X126.304 Y119.006 E5.67208
G1 X125.705 Y119.729 E5.70331
G1 X125.045 Y120.396 E5.73452
G1 X124.329 Y121.002 E5.76572
G1 X123.561 Y121.542 E5.79695
G1 X122.746 Y122.014 E5.82827
G1 X121.717 Y122.483 E5.86588
G1 X120.729 Y122.868 E5.90115
G1 X113.15 Y125.688 E6.17011
G1 X112.509 Y125.915 E6.19273
G1 X111.611 Y126.189 E6.22396
G1 X110.693 Y126.382 E6.25516
G1 X109.761 Y126.493 E6.28638
G1 X108.859 Y126.522 E6.31639
G1 X107.886 Y126.467 E6.34881
G1 X106.958 Y126.329 E6.38001
G1 X106.045 Y126.11 E6.41124
G1 X105.155 Y125.812 E6.44246
G1 X104.296 Y125.435 E6.47366
G1 X103.473 Y124.984 E6.50487
G1 X102.722 Y124.483 E6.5349
G1 X102.228 Y124.101 E6.55567
G1 X100.28 Y122.494 E6.63966
G1 X98.629 Y121.195 E6.70953
G1 X97.656 Y120.324 E6.75296
G1 X96.919 Y119.574 E6.78794
G1 X96.374 Y119.004 E6.81417
G1 X93.526 Y116.219 E6.94665
G1 X93.092 Y115.768 E6.96747
G1 X92.876 Y115.529 E6.97819
G1 X92.279 Y114.806 E7.00937
G1 X91.746 Y114.03 E7.04068
G1 X91.243 Y113.128 E7.07503
G1 X90.835 Y112.296 E7.10585
G1 X90.54 Y111.655 E7.12932
G1 X90.187 Y110.786 E7.16052
G1 X89.912 Y109.891 E7.19166
G1 X89.741 Y109.112 E7.21819
G1 X89.691 Y108.834 E7.22758
G1 X89.565 Y107.881 E7.25956
G1 X89.527 Y106.694 E7.29906
G1 X89.556 Y105.821 E7.32811
G1 X89.592 Y105.229 E7.34783
G1 X89.699 Y104.252 E7.38052
G1 X89.747 Y103.948 E7.39076
G1 X89.934 Y103.029 E7.42195
G1 X90.177 Y102.204 E7.45056
G1 X90.423 Y101.479 E7.47602
G1 X90.75 Y100.638 E7.50603
G1 X91.183 Y99.764 E7.53847
G1 X91.671 Y98.968 E7.56953
G1 X92.108 Y98.368 E7.59422
G1 X92.457 Y97.922 E7.61305
G1 X93.068 Y97.21 E7.64426
G1 X93.741 Y96.554 E7.67552
G0 F6000 X93.994 Y96.864
G1 F1200 X94.693 Y96.293 E7.70554
G1 X95.44 Y95.785 E7.73558
G1 X96.029 Y95.448 E7.75815
G1 X96.47 Y95.215 E7.77474
G1 X97.452 Y94.761 E7.81073
G1 X97.765 Y94.636 E7.82194
G1 X98.366 Y94.418 E7.8432
G1 X101.015 Y93.548 E7.93594
G1 X101.89 Y93.241 E7.96678
G1 X102.755 Y92.98 E7.99683
G1 X103.639 Y92.796 E8.02686
G1 X104.536 Y92.691 E8.0569
G1 X105.831 Y92.68 E8.09997
G1 X109.002 Y92.855 E8.2056
G1 X109.917 Y92.948 E8.23619
G1 X111.017 Y93.109 E8.27317
G1 X111.904 Y93.279 E8.3032
G1 X112.72 Y93.509 E8.3314
G1 X113.512 Y93.769 E8.35913
G1 X117.164 Y94.889 E8.48618
G1 X118.015 Y95.192 E8.51622
G1 X118.836 Y95.569 E8.54627
G1 X119.62 Y96.017 E8.5763
G1 X120.361 Y96.533 E8.60634
G1 X121.054 Y97.112 E8.63637
G1 X121.693 Y97.75 E8.6664
G1 X122.273 Y98.442 E8.69644
G1 X122.79 Y99.183 E8.72649
G1 X123.354 Y100.197 E8.76508
G1 X123.664 Y100.841 E8.78885
G1 X126.818 Y107.682 E9.0394
G1 X127.173 Y108.481 E9.06848
G1 X127.502 Y109.322 E9.09852
G1 X127.755 Y110.188 E9.12852
G1 X127.931 Y111.074 E9.15857
G1 X128.028 Y111.972 E9.18861
G1 X128.045 Y112.875 E9.21865
G1 X127.982 Y113.776 E9.24869
G1 X127.839 Y114.668 E9.27874
G1 X127.618 Y115.543 E9.30875
G1 X127.321 Y116.396 E9.33879
G1 X126.949 Y117.219 E9.36883
G1 X126.506 Y118.006 E9.39887
G1 X125.995 Y118.751 E9.42892
G1 X125.42 Y119.448 E9.45897
G1 X124.786 Y120.091 E9.48901
G1 X124.098 Y120.675 E9.51902
G1 X123.36 Y121.196 E9.54907
G1 X122.58 Y121.65 E9.57909
G1 X121.572 Y122.11 E9.61594
G1 X120.59 Y122.493 E9.651
G1 X113.016 Y125.311 E9.91978
G1 X112.392 Y125.533 E9.94181
G1 X111.528 Y125.798 E9.97187
G1 X110.645 Y125.985 E10.00189
G1 X109.748 Y126.093 E10.03194
G1 X108.846 Y126.122 E10.06195
G1 X107.944 Y126.071 E10.092
G1 X107.051 Y125.94 E10.12202
G1 X106.172 Y125.731 E10.15207
G1 X105.315 Y125.445 E10.18212
G1 X104.488 Y125.084 E10.21213
G1 X103.695 Y124.651 E10.24218
G1 X102.944 Y124.15 E10.27221
G1 X102.483 Y123.792 E10.29162
G1 X100.535 Y122.185 E10.37561
G1 X98.896 Y120.897 E10.44495
G1 X97.923 Y120.026 E10.48838
G1 X97.208 Y119.298 E10.52232
G1 X96.654 Y118.718 E10.549
G1 X93.814 Y115.941 E10.68111
G1 X93.388 Y115.499 E10.70152
G1 X93.184 Y115.274 E10.71163
G1 X92.608 Y114.579 E10.74165
G1 X92.095 Y113.835 E10.77171
G1 X91.602 Y112.952 E10.80534
G1 X91.198 Y112.129 E10.83584
G1 X90.91 Y111.504 E10.85872
G1 X90.569 Y110.668 E10.88875
G1 X90.303 Y109.805 E10.91879
G1 X90.135 Y109.041 E10.94481
G1 X90.085 Y108.763 E10.9542
G1 X89.965 Y107.868 E10.98424
G1 X89.927 Y106.707 E11.02287
G1 X89.955 Y105.845 E11.05156
G1 X89.99 Y105.272 E11.07065
G1 X90.094 Y104.314 E11.1027
G1 X90.139 Y104.027 E11.11236
G1 X90.318 Y103.142 E11.1424
G1 X90.556 Y102.332 E11.17048
G1 X90.796 Y101.624 E11.19534
G1 X91.123 Y100.783 E11.22535
G1 X91.524 Y99.973 E11.25541
G1 X91.995 Y99.203 E11.28543
G1 X92.423 Y98.614 E11.30965
G1 X92.761 Y98.182 E11.32789
G1 X93.348 Y97.496 E11.35792
G1 X93.994 Y96.864 E11.38798
G1 F1500 E4.88798
G0 F6000 X100.919 Y104.615
G1 F1500 E11.38798
G1 F1200 X101.318 Y104.406 E11.40296
G1 X101.605 Y104.291 E11.41325
G1 X102.31 Y104.149 E11.43717
G1 X102.321 Y104.147 E11.43754
G1 X103.039 Y103.961 E11.46221
G1 X103.052 Y103.957 E11.46266
G1 X103.647 Y103.759 E11.48352
G1 X103.656 Y103.755 E11.48384
G1 X103.958 Y103.638 E11.49462
G1 X103.965 Y103.636 E11.49486
G1 X105.183 Y103.113 E11.53895
G1 X105.24 Y103.169 E11.5416
G1 X105.316 Y103.19 E11.54423
G1 X105.795 Y103.224 E11.5602
G1 X105.802 Y103.225 E11.56043
G1 X107.582 Y103.291 E11.61968
G1 X107.687 Y103.26 E11.62332
G1 X107.758 Y103.278 E11.62575
G1 X107.824 Y103.283 E11.62796
G1 X108.387 Y103.233 E11.64675
G1 X108.406 Y103.244 E11.64748
G1 X108.458 Y103.264 E11.64934
G1 X109.063 Y103.401 E11.66997
G1 X109.071 Y103.403 E11.67024
G1 X109.4 Y103.464 E11.68137
G1 X109.527 Y103.429 E11.68575
G1 X109.674 Y103.531 E11.69171
G1 X109.794 Y103.567 E11.69587
G1 X109.814 Y103.56 E11.69658
G1 X109.931 Y103.66 E11.7017
G1 X109.966 Y103.684 E11.70311
G1 X110.332 Y103.882 E11.71695
G1 X110.343 Y103.887 E11.71735
G1 X110.649 Y104.029 E11.72857
G1 X110.665 Y104.036 E11.72915
G1 X110.926 Y104.131 E11.73839
G1 X110.943 Y104.136 E11.73898
G1 X111.375 Y104.251 E11.75385
G1 X111.408 Y104.257 E11.75496
G1 X111.602 Y104.275 E11.76144
G1 X111.635 Y104.513 E11.76943
G1 X106.679 Y106.358 E11.94532
G1 X106.464 Y106.165 E11.95493
G1 X106.415 Y106.132 E11.9569
G1 X105.929 Y105.908 E11.9747
G1 X105.873 Y105.892 E11.97663
G1 X105.347 Y105.818 E11.9943
G1 X105.291 Y105.818 E11.99616
G1 X104.764 Y105.892 E12.01386
G1 X104.709 Y105.908 E12.01577
G1 X104.229 Y106.127 E12.03332
G1 X104.179 Y106.16 E12.03531
G1 X103.776 Y106.521 E12.0533
G1 X103.735 Y106.572 E12.05548
G1 X103.469 Y107.044 E12.0735
G1 X103.446 Y107.107 E12.07573
G1 X103.349 Y107.65 E12.09408
G1 X103.349 Y107.719 E12.09637
G1 X103.444 Y108.262 E12.11471
G1 X103.467 Y108.326 E12.11697
G1 X103.733 Y108.799 E12.13502
G1 X103.773 Y108.849 E12.13715
G1 X104.171 Y109.21 E12.15502
G1 X104.222 Y109.244 E12.15706
G1 X104.713 Y109.468 E12.17501
G1 X104.768 Y109.484 E12.17691
G1 X104.905 Y109.504 E12.18152
G1 X106.174 Y112.257 E12.28234
G1 X105.298 Y112.635 E12.31408
G1 X104.799 Y111.606 E12.35211
G1 X104.795 Y111.598 E12.35241
G1 X104.518 Y111.088 E12.37171
G1 X104.504 Y111.065 E12.37261
G1 X104.162 Y110.594 E12.39197
G1 X104.146 Y110.575 E12.39279
G1 X103.905 Y110.318 E12.40451
G1 X103.892 Y110.306 E12.4051
G1 X103.591 Y110.037 E12.41853
G1 X103.578 Y110.026 E12.41909
G1 X103.187 Y109.732 E12.43536
G1 X103.161 Y109.715 E12.4364
G1 X102.648 Y109.442 E12.45573
G1 X102.638 Y109.438 E12.45608
G1 X102.091 Y109.183 E12.47616
G1 X101.141 Y108.574 E12.51369
G1 X100.9 Y108.314 E12.52548
G1 X100.355 Y107.173 E12.56754
G1 X100.314 Y106.945 E12.57524
G1 X100.363 Y105.879 E12.61074
G1 X100.399 Y105.655 E12.61828
G1 X100.63 Y104.975 E12.64217
G1 X100.919 Y104.615 E12.65752
G0 F6000 X101.18 Y104.93
G1 F1200 X101.49 Y104.768 E12.66916
G1 X101.719 Y104.676 E12.67736
G1 X102.389 Y104.541 E12.7001
G1 X102.421 Y104.534 E12.70119
G1 X103.139 Y104.348 E12.72585
G1 X103.178 Y104.336 E12.72721
G1 X103.773 Y104.138 E12.74807
G1 X103.801 Y104.128 E12.74906
G1 X104.103 Y104.011 E12.75983
G1 X104.123 Y104.003 E12.76055
G1 X105.155 Y103.56 E12.7979
G1 X105.288 Y103.589 E12.80243
G1 X105.767 Y103.623 E12.8184
G1 X105.787 Y103.625 E12.81907
G1 X107.567 Y103.691 E12.87831
G1 X107.71 Y103.67 E12.88312
G1 X107.859 Y103.682 E12.88809
G1 X108.333 Y103.64 E12.90392
G1 X108.369 Y103.654 E12.9052
G1 X108.974 Y103.791 E12.92583
G1 X108.998 Y103.796 E12.92665
G1 X109.327 Y103.857 E12.93778
G1 X109.442 Y103.857 E12.9416
G1 X109.446 Y103.86 E12.94177
G1 X109.645 Y103.95 E12.94903
G1 X109.655 Y103.951 E12.94937
G1 X109.671 Y103.964 E12.95005
G1 X109.776 Y104.036 E12.95429
G1 X110.142 Y104.234 E12.96813
G1 X110.174 Y104.25 E12.96932
G1 X110.48 Y104.392 E12.98054
G1 X110.528 Y104.412 E12.98227
G1 X110.645 Y104.454 E12.9864
G1 X106.766 Y105.899 E13.12408
G1 X106.731 Y105.867 E13.12566
G1 X106.582 Y105.769 E13.13159
G1 X106.096 Y105.545 E13.14939
G1 X105.929 Y105.496 E13.15518
G1 X105.403 Y105.422 E13.17284
G1 X105.236 Y105.422 E13.1784
G1 X104.709 Y105.496 E13.1961
G1 X104.543 Y105.544 E13.20184
G1 X104.063 Y105.763 E13.21939
G1 X103.912 Y105.862 E13.2254
G1 X103.509 Y106.223 E13.24339
G1 X103.386 Y106.375 E13.2499
G1 X103.12 Y106.847 E13.26792
G1 X103.052 Y107.036 E13.2746
G1 X102.955 Y107.579 E13.29294
G1 X102.955 Y107.788 E13.29989
G1 X103.05 Y108.331 E13.31823
G1 X103.118 Y108.522 E13.32497
G1 X103.384 Y108.995 E13.34302
G1 X103.504 Y109.145 E13.34941
G1 X103.902 Y109.506 E13.36728
G1 X104.056 Y109.608 E13.37343
G1 X104.547 Y109.832 E13.39138
G1 X104.628 Y109.856 E13.39419
G1 X105.64 Y112.052 E13.47461
G1 X105.491 Y112.116 E13.48
G1 X105.159 Y111.431 E13.50532
G1 X105.146 Y111.407 E13.50623
G1 X104.869 Y110.897 E13.52553
G1 X104.828 Y110.83 E13.52814
G1 X104.486 Y110.359 E13.5475
G1 X104.438 Y110.302 E13.54998
G1 X104.197 Y110.045 E13.5617
G1 X104.159 Y110.008 E13.56346
G1 X103.858 Y109.739 E13.57689
G1 X103.819 Y109.706 E13.57859
G1 X103.428 Y109.412 E13.59486
G1 X103.349 Y109.362 E13.59797
G1 X102.836 Y109.089 E13.6173
G1 X102.807 Y109.075 E13.61837
G1 X102.283 Y108.831 E13.63759
G1 X101.401 Y108.265 E13.67245
G1 X101.234 Y108.086 E13.68059
G1 X100.739 Y107.049 E13.71881
G1 X100.715 Y106.916 E13.72331
G1 X100.76 Y105.929 E13.75617
G1 X100.789 Y105.753 E13.7621
G1 X100.987 Y105.171 E13.78255
G1 X101.18 Y104.93 E13.79282
G0 F6000 X101.439 Y105.246
G1 F1200 X101.661 Y105.129 E13.80116
G1 X101.832 Y105.061 E13.80728
G1 X102.468 Y104.933 E13.82886
G1 X102.522 Y104.921 E13.8307
G1 X103.24 Y104.735 E13.85537
G1 X103.305 Y104.716 E13.85762
G1 X103.9 Y104.518 E13.87848
G1 X103.945 Y104.501 E13.88008
